X:1
T:Ben veggio di lontano il dolce lume
T:Orlando Lasso
T:Ben veggio di lontano il dolce lume
C:Orlando Lasso
%%score [ 1 2 3 4 ]
L:1/8
Q:1/4=72
M:4/4
K:F
V:1 alto2 nm="Canto" snm="C"
V:2 alto nm="Alto" snm="A"
V:3 tenor nm="Tenore" snm="T"
V:4 bass nm="Basso" snm="B"
V:1
 x8 | z2 z2 z2 x2 | D8 | E4 E2 F2- | F2 F2 A4- | A4 B4 | G4 ^F4 | G8 | ^F8 | ^F4 G4 | A2 B4 B2 | %11
w: ||Ben|veg- gio di|_ lon- ta-|* no il|dol- ce|lu-|me|O- ve|per a- spre|
 B2 A4 F2- | F2 E2 F4 | F4 B4- | B2 A2 A4 | G4 G4 | G6 G2 | A2 G4 ^F2 | G8 | z4 E4 | E4 E4 | %21
w: vie mi spro-|* ni e gi-|ri, Ma|_ non ho|co- me|tu da|vo- lar piu-|me.|As-|sai con-|
 D4 G4 | ^F4 G4 | A4 A4 | A8 | ^F4 A4 | B6 G2 | G2 G2 A4- | A4 c4 | B4 A4- | A4 G4 | A8- | A8 | %33
w: ten- ti|la- sci i|miei de-|si-|ri, Pur|che ben|de- si- an-|* do|mi con-|* su-|mi,|_|
 z4 A4 | G4 G4 | ^F4 G4- | G4 G4 | B4 A4 | z2 B2 G4 | ^F4 z2 G2 | G4 A4- | A4 z2 c2 | B4 G4 | %43
w: Ne|gli di-|spiac- cia|_ che|per lei|so- spi-|ri, so-|spi- ri,|_ che|per lei|
 z2 G2 G4- | G4 ^F2 E2 | !fermata!^F8 |] z8 | z8 | z8 | z8 | z8 |] %51
w: so- spi-||ri.||||||
V:2
 x8 | z2 z2 z2 x2 | =B,8 | C4 C2 D2- | D2 D2 F4- | F4 F4 | _E4 D4- | D4 C4 | D8 | D4 D4 | %10
w: ||Ben|veg- gio di|_ lon- ta-|* no il|dol- ce|_ lu-|me|O- ve|
 F2 F4 G2 | F4 F4 | B,2 B,2 C4 | D4 F4- | F2 F2 F4 | D4 _E4 | D6 D2 | F2 _E2 D4 | =B,8 | z4 C4 | %20
w: per a- spre|vie mi|spro- ni e gi-|ri, Ma|_ non ho|co- me|tu da|vo- lar piu-|me.|As-|
 C4 C4 | =B,4 D4 | D4 E4 | F4 F4 | E8 | D4 ^F4 | G6 E2 | E2 E2 F4- | F4 A4 | G4 C4 | D6 E2 | %31
w: sai con-|ten- ti|la- sci i|miei de-|si-|ri, Pur|che ben|de- si- an-|* do|mi con-|su- *|
 F4 E2 D2 | E8 | z4 F4 | _E4 E4 | D4 D4 | E8 | F4 F2 F2 | D4 C4 | z2 A,2 C4 | =B,2 D2 F4 | E4 A4 | %42
w: |mi,|Ne|gli di-|spiac- cia|che|per lei so-|spi- ri,|so- spi-|ri, so- spi-|ri, che|
 G2 G2 E4 | D4 D4 | z2 D2 D2 ^C2 | D8 |] z8 | z8 | z8 | z8 | z8 |] %51
w: per lei so-|spi- ri,|so- spi- *|ri.||||||
V:3
 x8 | z2 z2 z2 x2 | G,8 | G,4 G,2 B,2- | B,2 B,2 C4- | C4 D4 | C4 A,4 | G,8 | A,8 | A,4 =B,4 | %10
w: ||Ben|veg- gio di|_ lon- ta-|* no il|dol- ce|lu-|me|O- ve|
 C2 D4 _E2 | D2 D2 C2 D2- | DC B,4 A,2 | B,4 D4- | D2 C2 C4 | =B,4 C4- | C2 =B,A, B,2 B,2 | %17
w: per a- spre|vie mi spro- ni e|_ _ _ gi-|ri, Ma|_ non ho|co- me|_ _ _ tu da|
 C2 C2 A,4 | G,8 | z4 G,4 | G,4 G,4 | G,4 B,4 | A,4 C4 | C2 A,2 D4- | D2 ^C=B, C4 | A,4 D4 | %26
w: vo- lar piu-|me.|As-|sai con-|ten- ti|la- sci i|miei de- si-||ri, Pur|
 D6 C2 | C2 C2 C4- | C4 F4 | D4 F4- | F2 E2 D4- | D4 ^C2 =B,2 | ^C8 | z4 D4 | B,4 C4 | A,4 =B,4 | %36
w: che ben|de- si- an-|* do|mi con-|* su- *||mi,|Ne|gli di-|spiac- cia|
 C8 | D4 C2 C2 | F4 E4 | z2 D2 _E4 | D2 =B,2 D4 | ^C4 z2 F2 | D4 C4 | z2 B,2 B,4 | A,8- | A,8 |] %46
w: che|per lei so-|spi- ri,|so- spi-|ri, so- spi-|ri, so-|spi- ri,|so- spi-|ri.|_|
 z8 | z8 | z8 | z8 | z8 |] %51
w: |||||
V:4
 x8 | z2 z2 z2 x2 | G,,8 | C,4 C,2 B,,2- | B,,2 B,,2 F,4- | F,4 B,,4 | C,4 D,4 | _E,8 | D,8 | %9
w: ||Ben|veg- gio di|_ lon- ta-|* no il|dol- ce|lu-|me|
 D,4 G,4 | F,2 B,4 _E,2 | B,2 F,2 F,4 | G,4 F,4 | B,,4 B,4- | B,2 F,2 F,4 | G,4 C,4 | G,6 G,2 | %17
w: O- ve|per a- spre|vie mi spro-|ni e gi-|ri, Ma|_ non ho|co- me|tu da|
 F,2 C,2 D,4 | G,,8 | z4 C,4 | C,4 C,4 | G,,4 G,,4 | D,4 C,4 | F,4 D,4 | A,8 | D,4 D,4 | G,6 C,2 | %27
w: vo- lar piu-|me.|As-|sai con-|ten- ti|la- sci i|miei de-|si-|ri, Pur|che ben|
 C,2 C,2 F,4- | F,4 F,4 | G,4 A,4 | B,8 | A,8- | A,8 | z4 D,4 | _E,4 C,4 | D,4 G,,4 | C,8 | %37
w: de- si- an-|* do|mi con-|su-|mi,|_|Ne|gli di-|spiac- cia|che|
 B,,4 F,4 | z2 B,,2 C,4 | D,4 z2 C,2 | G,4 D,4 | A,4 F,4 | G,4 z2 C,2 | G,8 | D,6 z2 | D,8 |] z8 | %47
w: per lei|so- spi-|ri, che|per lei|so- spi-|ri, so-|spi-|ri|i.||
 z8 | z8 | z8 | z8 |] %51
w: ||||

